X:1
T:Pas de Deux, II. Andante allgero
T:Pas de Deux, II. Andante allgero
T:Swan Lake, Piano Arrangement for 3 hands
T:Hinci
C:Hinci
%%score { ( 1 4 ) | 2 | 3 }
L:1/8
Q:1/4=56
M:2/4
K:D
V:1 treble nm="Piano" snm="Pno."
V:4 treble 
V:2 bass 
V:3 bass 
V:1
 z!mf!"^Andante." (f'2 c') | !tenuto!e'!tenuto!d' !tenuto!c'!tenuto!b | (a3 ^e) | (^gf) z2 | %4
 !tenuto!b!tenuto!a !tenuto!^g!tenuto!f | (ea) (.^g.f) | (e3 d) | c4 |!mp! (Be f^g) | %9
{/f^g} (f3 e) | (Be f^g) |{/f^g} (f3 e) | ^d(a ba | ^g/)!<(!g/^a/^b/ c'/^d'/e'/f'/!<)! | %14
!f! ^g'3 ^b | c'2 z2 | z!mf! (f'2 c') | %17
 (!fermata!e'/d'/).e'/.d'/{/!fermata!c'!fermata!d'} (!fermata!c'/b/).c'/.b/ | %18
 !fermata!a/(B/c/^e/) (!fermata!a/e/a/e/) | (^g/f/){/fg}(f/!fermata!^e/) f2 | %20
 z/ !fermata!b/a/^g/ (!fermata!g/a/).g/.f/ | (e/a/).^g/.f/ (e/a/).g/.f/ | %22
 !fermata!ee- e/(!fermata!B/!fermata!e/d/) | c4 | z/ (^G,/B,/E/) (3(F/^G/B/(3e/f/^g/) | %25
{/f^g} (f3 e) | z/ (^G,/B,/E/) (3(F/^G/B/(3e/f/^g/) |{/f^g} (f3 e) | %28
 ^d/-(d/a/c'/){/^d'e'} (d'/c'/).b/.a/ | %29
 .!fermata!^g/4(g/4^a/4^b/4c'/4)(b/4c'/4^d'/4 e'/4)(b/4c'/4d'/4e'/4)(d'/4e'/4f'/4 | %30
 (3!fermata!^g'/)(g'/a'/)(3(g'/a'/)(g'/ (3a'/)(g'/a'/)(3(!fermata!g'/b/^b/) | c'2 z2 | %32
 (^G,^B, C^D) | (FE){/FE} (^DC) | (E3 ^B,) | (^D2 C2) | (3z ^G,^A, (3^B,C^D | %37
 (3(FEF){/EF} (3(E^DC) | ^G (G2 ^B,) | C4 | (3z (^ga) (3(g^dg) | (3z (^Gc){/c^d} (3(cde) | %42
 (3(^g=g^g) (3(^bc'^d') | (3(^g^a^b) (3(c'^d'e') |!mp! !trill(!T^g'4 | !trill(!T^g'4 | %46
 !trill(!T^g'7/2 (=g'/4^g'/4) | %47
 (6:4:6(!fermata!^g'/e'/^d'/c'/a/^g/) (6:4:6(e/^d/c/^G/E/!fermata!C/) |[Q:1/4=60] [B,B]!mf!(ef^g) | %49
 (ac ^gf) | (e3 d) | (cf e2) | z (ef^g) | (ac ^gf) | (e3 d) | (cf e2) | z (e'f'^g') | %57
 (a'c' ^g'f') | (e'3 d') | (c'f' e'2) | (3z (be') (3(e'f'^g') | (3(a'c'e') (3:2:2(^g'2 f') | %62
 (e'3 d' | c'2) z2 | z!f! ([ff']2 [cc']) | ([ee'][dd'] [cc'][Bb]) | ([Aa]3 [^E^e]) | %67
 ([^G^g][Ff]) z2 | ([Bb][Aa] [^G^g][Ff]) | (e[Aa]) .[^G^g].[Ff] | [Ee]3 [Dd] | [Cc]4 | %72
!mp! (be' f'^g') |{/f'^g'} (f'3 e') | (be' f'^g') |{/f'^g'} (f'3 e') | (^d'a' b'a' | %77
 ^g'/)!<(!^g/^a/^b/ c'/^d'/e'/f'/ | !tenuto!^g'!<)!!f! (g'2 ^b) | %79
!mf! c'/4^d'/4c'/4d'/4c'/4d'/4c'/4d'/4c'3/16d'3/16c'3/16d'3/16c'3/16d'3/16c'3/16d'3/16c'/8d'/8c'/8d'/8 | %80
 !////-!c'2 ^d'2 | !////-!c'2 ^d'2 | !////-!c'2 ^d'2 |[Q:1/4=80] c' c'2 c'- | c' c'2 c'- | %85
 c'"_dim." c2 c- | c C2 C- | C"^rit."[Q:1/4=76] C2[Q:1/4=72] C- | C[Q:1/4=68] C2[Q:1/4=64] C- | %89
 C[Q:1/4=60]!pp! !fermata!C2!mf![Q:1/4=80] (C ||[K:A]"^Allegro."[Q:1/4=96] G).F .B/.A/.G/.F/ | %91
 ET[cf] [ce]/A,/B,/C/ | DT[df] [de]/G,/A,/B,/ | CT[cf] [ce](A | G).F .B/.A/.G/.F/ | %95
 ET[cf] [ce]/A,/B,/C/ | DT[df] [de]/[de]/[ce]/[Be]/ | [Ae]/A/B/c/ d/c/d/e/ | %98
 gf [gb]/[fa]/[eg]/[df]/ | eTf' e'/A,/B,/C/ | DTf' e'/G,/A,/B,/ | CTf' e'(a' | %102
 g').f' .b'/.a'/.g'/.f'/ | .e'/.e'/.a'/.g'/{/f'g'} .f'/.e'/.d'/.c'/ | %104
 .b/.a'/.g'/.f'/{/e'f'} .e'/.d'/.c'/.b/ | .a/.a/.c'/.e'/ .a'!f! a | %106
 [gg'][ff'] ([bb']/[aa']/).[gg']/.[ff']/ | [ee'](3(f'/g'/f'/ [ee']/)[Aa]/[Bb]/[cc']/ | %108
 [dd'](3(f'/g'/f'/ [ee']/)[Gg]/[Aa]/[Bb]/ | [cc'](3(f'/g'/f'/ [ee']) [aa'] | %110
 [gg'][ff'] ([bb']/[aa']/).[gg']/.[ff']/ | [ee'](3(f'/g'/f'/ [ee']/)[Aa]/[Bb]/[cc']/ | %112
 [dd'](3(f'/g'/f'/ [ee']/)[Gg]/[Aa]/[Bb]/ | c/[ee']/[ff']/[gg']/ [ac'e'a'] z |: %114
[Q:1/4=88] z!mf! [ac'] (3([fa]/4[gb]/4[fa]/4)[^eg]/[fa] | %115
 z [gb] (3([^eg]/4[fa]/4[eg]/4)[^df]/[eg]/ z/ | z [fa] ([gb]/[fa]/).[^eg]/.[^df]/ | %117
 .[c^e].[cegc'] .[B,C^E].[cegc'] | z [ac'] (3([fa]/4[gb]/4[fa]/4)[^eg]/[fa] | %119
 z [gb] (3([^eg]/4[fa]/4[eg]/4)[^df]/[eg]/ z/ | z [fa] [gb]/[fa]/[^eg]/[^df]/ |1 %121
 [c^e]/c'/^d'/^e'/ f' z :|2 [c^e]/c'/^d'/^e'/ f'/ !fermata!z/!mf! (A || %123
[Q:1/4=96] G).F .B/.A/.G/.F/ | ET[cf] [ce]/A,/B,/C/ | DT[df] [de]/G,/A,/B,/ | CT[cf] [ce](A | %127
 G).F .B/.A/.G/.F/ | ET[cf] [ce]/A,/B,/C/ | DT[df] [de]/[de]/[ce]/[Be]/ | [Ae]/A/B/c/ d/c/d/e/ | %131
 gf [gb]/[fa]/[eg]/[df]/ | eTf' e'/A,/B,/C/ | DTf' e'/G,/A,/B,/ | CTf' e'(a' | %135
 g').f' .b'/.a'/.g'/.f'/ | .e'/.e'/.a'/.g'/{/f'g'} .f'/.e'/.d'/.c'/ | %137
 .b/.a'/.g'/.f'/{/e'f'} .e'/.d'/.c'/.b/ || %138
"^Molto più mosso." a!mf![ce]/[ce]/ [cf]/[ce]/[ce]/[ce]/ | %139
 [df]/[de]/[de]/[de]/ [df]/[de]/[de]/[de]/ | %140
"^accel."[Q:1/4=97] [cf]/[ce]/[ce]/[ce]/[Q:1/4=98] [Ab]/[Aa]/[Aa]/[Aa]/ | %141
[Q:1/4=99] [Bb]/[Aa]/[Aa]/[Aa]/[Q:1/4=100] [ec']/[eb]/[eb]/[eb]/ | %142
[Q:1/4=101] [ff']/[ee']/[ee']/[ee']/[Q:1/4=102] [ff']/[ee']/[ee']/[ee']/ | %143
[Q:1/4=103] [DB]/[DB]/[fd']/[fd']/[Q:1/4=104] [DB]/[DB]/[fd']/[fd']/ | %144
[Q:1/4=105] [A,E]/[A,E]/[ce]/[ce]/[Q:1/4=106] [Aa]/[Aa]/[Ac']/[Ac']/ | %145
[Q:1/4=107] [ge']/[ge']/[ge']/[ge']/[Q:1/4=108] [af']/[af']/[bg']/[bg']/ | %146
[Q:1/4=109]"^\n\n" [c'a'][ce]/[ce]/ [cf]/[ce]/[ce]/[ce]/ | %147
 [df]/[de]/[de]/[de]/ [df]/[de]/[de]/[de]/ | %148
[Q:1/4=110] [cf]/[ce]/[ce]/[ce]/[Q:1/4=111] [Ab]/[Aa]/[Aa]/[Aa]/ | %149
[Q:1/4=112] [Bb]/[Aa]/[Aa]/[Aa]/[Q:1/4=113] [ec']/[eb]/[eb]/[eb]/ | %150
[Q:1/4=114] [ff']/[ee']/[ee']/[ee']/[Q:1/4=115] [ff']/[ee']/[ee']/[ee']/ | %151
 [DB]/[DB]/[fd']/[fd']/ [DB]/[DB]/[fd']/[fd']/ | [A,E]/[A,E]/[ce]/[ce]/ [Aa]/[Aa]/[Ac']/[Ac']/ | %153
 [ge']/[ge']/[ge']/[ge']/ [af']/[af']/[bg']/[bg']/ |[Q:1/4=116]"_cresc." !//![c'a']4 | %155
[Q:1/4=118] !//![c'a']4 |[Q:1/4=119] !//![c'a']4 |[Q:1/4=120] !//![c'a']4 |!mf! .[c'a'] z!f! .a z | %159
 .[ac'] z .[ae'] z | .[aa'] z!<(! .a z | .[ac'] z .[ae'] z!<)! |!f! .[aa'] z!fff! .[ae'] z | %163
 .[A,CEA] z z2 |] %164
V:2
!p! ^A,,2 [F,CE]2 | B,,2 [F,B,D]2 | C,2 [^E,B,C]2 | D,2 [F,A,D]2 | ^D,2 [F,A,=C]2 | E,2 [E,A,C]2 | %6
 ^E,2 [^G,B,]2 | F,2 [A,C]2 | ([D,^G,B,E]4 | [C,A,]4) | ([D,^G,B,E]4 | [C,A,]4) | [F,A,C^D]4 | %13
 [^G,CE]4 |!mp! ^G,2 [G,^DF]2 | C,2 [^G,CE]2 | ^A,,2 [G,CE]2 | B,,2 [F,B,D]2 | C,2 [^E,B,C]2 | %19
 D,2 [F,A,D]2 | ^D,2 [F,A,=C]2 | E,2 [E,A,C]2 | ^E,2 [^G,B,]2 | F,2 [A,C]2 | ([D,^G,B,E]4 | %25
 [C,A,]4) | ([D,^G,B,E]4 | [C,A,]4) | [A,C^D]4 | [^G,CE]4 | ^G,2 [G,^DF]2 | C,2 [^G,CE]2 | %32
!p! [C,,^G,,^^B,,]4 | [C,,^G,,^C,]4 | [^G,,C,F,]4 | [^G,,C,E,]4 | [C,,^G,,^^B,,]4 | [C,,^G,,^C,]4 | %38
 [^G,,C,^D,F,]4 | [^G,,C,E,]4 | [^G,,^B,,C,]4 | [^G,,C,]4 | [^G,,C,F,]4 | [^G,,C,E,]4 | %44
 [^G,,^B,,C,]4 | [^G,,C,]4 | [^G,,C,^D,F,]4 | [^G,,C,E,]2 z2 |!mp! [E,,B,,D,]4 | %49
 ([F,,A,,C,]2 [A,,E,]2) | ([F,,^G,,B,,]2 [E,,G,,]2) | ([F,,A,,C,]2 [A,,C,]2) | %52
 ([E,,B,,D,E,]2 [E,,D,F,]2) | ([F,,A,,C,]2 [A,,E,]2) | ([F,,^G,,B,,]2 [E,,G,,]2) | %55
 ([F,,A,,C,][E,E]!>(! [A,CA])[A,CE]!>)! |[K:treble]!pp! !////-![Bd]2 [e^g]2 | !////-![Ac]2 [ea]2 | %58
 !////-!B2 [de]2 | !////-!A2 [ce]2 | !////-!^G2 [Be]2 | !////-!A2 [ce]2 | !////-!B2 [de]2 | %63
 !////-!A2 [ce]2 |!mp! !arpeggio![B,Gce] z [^A,F]2 | !arpeggio!.[B,DFBd] z[K:bass]!p! .[F,,B,,] z | %66
 .[C,,A,,B,,] z z2 | .[A,,C,F,] z .[F,,A,,D,] z | .[A,,B,,F,] z .[A,,^B,,F,] z | %69
 .[E,,A,,C,] z .[D,,A,,D,] z | .[C,,A,,E,] z .[D,,^G,,B,,^E,] z | .[F,A,C] z .[CFAc] z | %72
 [D,E,^G,]4 | [C,E,A,]4 | [D,E,^G,]4 | [C,E,A,]4 | [F,,A,,C,^D,]4 | [^G,,E,^G,]4 | %78
 [^G,,^D,F,^G,]4 | [^G,,C,E,]2 z2 | !arpeggio![C,,^G,,C,E,C] z z2 | z4 | %82
 !arpeggio![C,,^G,,C,E,C] z z2 | z4 | z4 | z4 | z4 | z4 | z4 | z4 || %90
[K:A]!p! .D,.[E,G,B,] .D,.[E,G,B,] | .C,.[E,A,] .A,,.[E,A,E] | .G,,.[E,B,D] .E,,.[E,B,D] | %93
 .A,,.[E,A,C] .C,.[A,B,E] | .D,.[F,A,D] .D,.[G,B,E] | .C,.[A,E] .A,,.[A,E] | %96
 .G,,.[B,DE] .E,,.[G,DE] | .[A,,C,E,A,].A, z2 |[K:treble] .D.[DFA] .D.[EGB] | .C.[EA] .A,.[EA] | %100
 .G,.[DEB] .E,.[DEG] | .A,.[CEA] A,.[EAc] | .D.[DFA] .D.[EGB] | .C.[EAc] .A,.[EA] | %104
 .D.[DFB] .E.[DEG] | .[A,CEA] z z .[A,A] |[K:bass] .[D,,D,][A,DF] .[D,,D,][B,EG] | %107
 .[C,,C,][A,E] .[A,,,A,,][A,,E,A,] | .[G,,G,][B,DE] .[E,,E,][E,B,DE] | %109
 .[A,,A,][A,CE] .[A,,,A,,][E,A,C] | .[D,,D,][A,DF] .[D,,D,][B,EG] | %111
 .[C,,C,][A,E] .[A,,,A,,][A,,E,A,] | .[G,,G,][B,DE] .[E,,E,][E,B,DE] | %113
 .[A,,A,][E,,B,,D,E,] [A,,C,A,] z |:!mp! .[F,,C,F,].[F,A,C] .[A,CF].[CFA] | %115
 !arpeggio!.[^E,,C,^E,].[E,G,C] .[G,C^E].[CEG] | !arpeggio!.[F,A,CF] z z2 | %117
 .[^E,,C,^E,].[C^EG] .[E,,C,E,].[CEG] | !arpeggio!.[F,,C,F,].[F,A,C] .[A,CF].[CFA] | %119
 !arpeggio!.[^E,,C,^E,].[E,G,C] .[G,C^E].[CEG] | [F,A,CF] z z2 |1 %121
 .[F,,C,^E,].[C^E] [A,CF]/[A,C]/[^DF]/[EG]/ :|2 .[F,,C,^E,].[C^E] [A,CF]/ !fermata!z/ z || %123
!p! .D,.[E,G,B,] .D,.[E,G,B,] | .C,.[E,A,] .A,,.[E,A,E] | .G,,.[E,B,D] .E,,.[E,B,D] | %126
 .A,,.[E,A,C] .C,.[A,B,E] | .D,.[F,A,D] .D,.[G,B,E] | .C,.[A,E] .A,,.[A,E] | %129
 .G,,.[B,DE] .E,,.[G,DE] | .[A,,C,E,A,].A, z2 |[K:treble] .D.[DFA] .D.[EGB] | .C.[EA] .A,.[EA] | %133
 .G,.[DEB] .E,.[DEG] | .A,.[CEA] A,.[EAc] | .D.[DFA] .D.[EGB] | .C.[EAc] .A,.[EA] | %137
 .D.[DFB] .E.[DEG] || .[A,CEA] z [A,A]2 | [B,G]2!<(! [E-A][EB] | [A,E]2 [C=Gc]2 | %141
 [D-Fd-][D=Fd] [E^^F][DG] | [A,CA]2 [Aa]2 | [Fdf]2 ([Ee][Dd])!<)! |!mp! [ce]2 ([B,B][A,A]) | %145
 ([Ee][Dd] [Cc][B,B]) | [A,A] z [A,A]2 | [B,G]2 [E-A][EB] | [A,E]2 [C=Gc]2 | %149
 [D-Fd-][D=Fd] [E^^F][DG] | [A,CA]2 [Aa]2 | [Fdf]2 ([Ee][Dd]) | [ce]2 ([B,B][A,A]) | %153
 ([Ee][Dd] [Cc][B,B]) | A,[CEA] F,[CFA] | A,[CEA] F,[CFA] | A,[CEA] F,[CFA] | A,[CEA] F,[CFA] | %158
 [A,CEA]A [EAce]A | [EAce]A [EAce]A | [EAce]A [EAce]A | [EAce]A [EAce]A | [EAce] z .[EAe] z | %163
[K:bass] .[A,,C,E,] z z2 |] %164
V:3
 z4 | z4 | z4 | z4 | z4 | z4 | z4 | z4 | z4 | z4 | z4 | z4 | z4 | z4 | z4 | z4 | z4 | z4 | z4 | %19
 z4 | z4 | z4 | z4 | z4 | z4 | z4 | z4 | z4 | z4 | z4 | z4 | z4 | z4 | z4 | z4 | z4 | z4 | z4 | %38
 z4 | z4 |!mp! (^G,^B, C^D) | (FE ^DC) | (E3 ^B,) | (^D2 C2) | (^G,^B, C^D) | (FE)({/FE} ^DC) | %46
 ^G (G2 ^B,) | C2 z2 | %48
[K:treble]!pp! (B,/4E/4B/4e/4)(e/4B/4E/4B,/4) (B,/4E/4B/4e/4)(e/4B/4E/4B,/4) | %49
 (A,/4E/4A/4e/4)(e/4A/4E/4A,/4) (A,/4E/4A/4e/4)(e/4A/4E/4A,/4) | %50
 (B,/4E/4B/4e/4)(e/4B/4E/4B,/4) (B,/4E/4B/4e/4)(e/4B/4E/4B,/4) | %51
 (A,/4E/4A/4e/4)(e/4A/4E/4A,/4) (A,/4E/4A/4e/4)(e/4A/4E/4A,/4) | %52
 (B,/4E/4B/4e/4)(e/4B/4E/4B,/4) (B,/4E/4B/4e/4)(e/4B/4E/4B,/4) | %53
 (A,/4E/4A/4e/4)(e/4A/4E/4A,/4) (A,/4E/4A/4e/4)(e/4A/4E/4A,/4) | %54
 (B,/4E/4B/4e/4)(e/4B/4E/4B,/4) (B,/4E/4B/4e/4)(e/4B/4E/4B,/4) | %55
 (A,/4E/4A/4e/4)(e/4A/4E/4A,/4) (A,/4E/4A/4e/4)(e/4A/4E/4A,/4) |!pp! z4 | z4 | z (!>!e!>!f!>!^g) | %59
 (!>!a!>!c !>!^g!>!f) | (!>!e3 !>!d | !>!c) z z2 | (3z (!>!^G!>!B (3!>!e!>!f!>!^g) | %63
 (3(!>!!fermata!b!>!!fermata!a!>!!fermata!^g !>!a2) | z4 | z[K:bass]!p!!<(! (B,,C,D,) | %66
 (^D,^E, F,^G,) | (A,2 B,C) | (D2 ^D2!<)! |!mf! E) z z2 | z4 | z4 | z4 |[K:treble] (EA Bc | %74
 B) z z2 | (EA Bc | ^d) z z2 | z4 | z4 | z4 | !arpeggio![Ec^g] z z2 | z4 | !arpeggio![Ec^g] z z2 | %83
 z4 | z4 | z4 | z4 | z4 | z4 | z4 ||[K:A] z4 | z4 | z4 | z4 | z4 | z4 | z4 | z4 | z4 | z4 | z4 | %101
 z4 | z4 | z4 | z4 | z4 | GF (B/A/).G/.F/ | E(3(f/g/f/ E/)A,/B,/C/ | D(3(f/g/f/ E/)G,/A,/B,/ | %109
 C(3(f/g/f/ E) A | GF (B/A/).G/.F/ | E(3(f/g/f/ E/)A,/B,/C/ | D(3(f/g/f/ E/)G,/A,/B,/ | %113
 C/E/F/G/ A z |: z4 | z4 | z4 | z4 | z4 | z4 | z4 |1 z4 :|2 z4 || z4 | z4 | z4 | z4 | z4 | z4 | %129
 z4 | z4 | z4 | z4 | z4 | z4 | z4 | z4 | z4 ||[K:bass] z2 z2 | z2!p!!<(! E,2 | z2 =G,2 | %141
 F,=F, E,D, | C,2 z2 | D,2 z2!<)! |!mp! E,2 [E,E]2 | E,2 [E,E]2 | A,, z z2 | z2 E,2 | z2 =G,2 | %149
 F,=F, E,D, | C,2 z2 | D,2 z2 | E,2 [E,E]2 | E,2 [E,E]2 | z4 | z4 |[K:treble] [A-ea-]2 [FAfa]2 | %157
 [A-ea-]2 [FAfa]2 |[K:bass] z2 A, z | [E,A,] z [C,A,] z | [A,,A,] z A, z | [E,A,] z [C,A,] z | %162
 [A,,A,] z z2 | z4 |] %164
V:4
 x4 | x4 | x4 | x4 | x4 | x4 | x4 | x4 | x4 | EA Bc | x4 | EA Bc | x4 | x4 | x4 | x4 | x4 | x4 | %18
 x4 | x4 | x4 | x4 | x4 | x4 | x4 | EA Bc | B z z2 | EA Bc | x4 | x4 | x4 | x4 | x4 | x4 | x4 | %35
 x4 | x4 | x4 | x4 | x4 | x4 | x4 | x4 | x4 | x4 | x4 | x4 | x4 | x4 | x4 | x4 | x4 | x4 | x4 | %54
 x4 | x4 | x4 | x4 | x4 | x4 | x4 | x4 | x4 | x4 | x4 | x4 | x4 | x4 | x4 | x4 | x4 | x4 | x4 | %73
 x4 | x4 | x4 | x4 | x4 | x4 | x4 | x4 | x4 | x4 | x4 | x4 | x4 | x4 | x4 | x4 | x4 ||[K:A] x4 | %91
 x4 | x4 | x4 | x4 | x4 | x4 | x4 | x4 | x4 | x4 | x4 | x4 | x4 | x4 | x4 | x4 | x4 | x4 | x4 | %110
 x4 | x4 | x4 | x4 |: x4 | x4 | x4 | x4 | x4 | x4 | x4 |1 x4 :|2 x4 || x4 | x4 | x4 | x4 | x4 | %128
 x4 | x4 | x4 | x4 | x4 | x4 | x4 | x4 | x4 | x4 || x4 | x4 | x4 | x4 | x4 | x4 | x4 | x4 | x4 | %147
 x4 | x4 | x4 | x4 | x4 | x4 | x4 | x4 | x4 | x4 | x4 | x4 | x4 | x4 | x4 | x4 | x4 |] %164

